src/images/illustration-deliberate.svg

<svg fill="none" height="119" viewBox="0 0 126 119" width="126" xmlns="http://www.w3.org/2000/svg"><g stroke="#4d4d4d" stroke-linecap="round" stroke-linejoin="round" stroke-miterlimit="10" stroke-width="3"><path d="m97.0001 73.6c8.0999-5.1 1.2-16.9-4.7-15.3 3-7.7-3.6-15.1-9.1-13.6-.1001-4.9-4.5001-6.2-8.0001-6.2-4.9 0-8.9 4.3-8.9 9.7v54c0 8 6 14.5 13.4 14.5 7.6001 0 14.7001-7.4 9.3001-16.3 8.8 4 11.5999-5.7 7.4-9.8 7.3999-3.1 8.6999-14.4.6-17z" fill="#2bd1b8"/><path d="m92.5004 57.8c-1.9 4.9001-7.1001 7.3001-11.7001 5.2001"/><path d="m82.4999 56.8001c-4.7-1.5-8.3 1.2-9 4.7-.9 4.1 3.7 8.8 8.3 8.5"/><path d="m88.2 73.6001c-.7999 4.6 3.3 7.4 7.2 7.1"/><path d="m89.4 94.9c-2.8-1.6-6.1-2.1001-8.1.5-2.1999 2.9-.6 6.2 3 8.7"/><path d="m76.8999 89.3001c4.4-5 13.5-5.4 19.4 1.2"/><path d="m29.5001 73.6c-8.1-5.1-1.2-16.9 4.7-15.3-3-7.7 3.6-15.1 9.1-13.6.1-4.9 4.5-6.2 8-6.2 4.9 0 8.9 4.3 8.9 9.7v54c0 8-6 14.5-13.4 14.5-7.6 0-14.7-7.4-9.3-16.3-8.8 4-11.6-5.7-7.4-9.8-7.5-3.1-8.7-14.4-.6-17z" fill="#c149c4"/><path d="m33.8999 57.8c1.9 4.9001 7.1 7.3001 11.7 5.2001"/><path d="m43.8999 56.8001c4.7-1.5 8.3 1.2 9 4.7.9 4.1-3.7 8.8-8.3 8.5"/><path d="m38.3001 73.6001c.8 4.6-3.3 7.4-7.2 7.1"/><path d="m37 94.9c2.8-1.6 6.1-2.1001 8.1.5 2.2 2.9.6 6.2-3 8.7"/><path d="m49.6002 89.3001c-4.4-5-13.5-5.4-19.4 1.2"/><path d="m63.2002 10.0001v-8.0001"/><path d="m31.8999 18.4001-4-6.9001"/><path d="m8.90002 41.4001-6.90002-4"/><path d="m124.5 37.4001-7 4"/><path d="m98.6001 11.5-4 6.9001"/></g></svg>

<svg width="126" height="119" viewBox="0 0 126 119" fill="none" xmlns="http://www.w3.org/2000/svg">
<path d="M97.0001 73.6C105.1 68.5 98.2001 56.7 92.3001 58.3C95.3001 50.6 88.7001 43.2 83.2001 44.7C83.1 39.8 78.7 38.5 75.2 38.5C70.3 38.5 66.3 42.8 66.3 48.2C66.3 49.8 66.3 97.9 66.3 102.2C66.3 110.2 72.3 116.7 79.7 116.7C87.3001 116.7 94.4001 109.3 89.0001 100.4C97.8001 104.4 100.6 94.7 96.4001 90.6C103.8 87.5 105.1 76.2 97.0001 73.6Z" fill="#2BD1B8" stroke="#4D4D4D" stroke-width="3" stroke-miterlimit="10" stroke-linecap="round" stroke-linejoin="round"/>
<path d="M92.5004 57.8C90.6004 62.7001 85.4003 65.1001 80.8003 63.0001" stroke="#4D4D4D" stroke-width="3" stroke-miterlimit="10" stroke-linecap="round" stroke-linejoin="round"/>
<path d="M82.4999 56.8001C77.7999 55.3001 74.1999 58.0001 73.4999 61.5001C72.5999 65.6001 77.1999 70.3001 81.7999 70.0001" stroke="#4D4D4D" stroke-width="3" stroke-miterlimit="10" stroke-linecap="round" stroke-linejoin="round"/>
<path d="M88.2 73.6001C87.4001 78.2001 91.5 81.0001 95.4 80.7001" stroke="#4D4D4D" stroke-width="3" stroke-miterlimit="10" stroke-linecap="round" stroke-linejoin="round"/>
<path d="M89.4 94.9C86.6 93.3 83.3 92.7999 81.3 95.4C79.1001 98.3 80.7 101.6 84.3 104.1" stroke="#4D4D4D" stroke-width="3" stroke-miterlimit="10" stroke-linecap="round" stroke-linejoin="round"/>
<path d="M76.8999 89.3001C81.2999 84.3001 90.3999 83.9001 96.2999 90.5001" stroke="#4D4D4D" stroke-width="3" stroke-miterlimit="10" stroke-linecap="round" stroke-linejoin="round"/>
<path d="M29.5001 73.6C21.4001 68.5 28.3001 56.7 34.2001 58.3C31.2001 50.6 37.8001 43.2 43.3001 44.7C43.4001 39.8 47.8001 38.5 51.3001 38.5C56.2001 38.5 60.2001 42.8 60.2001 48.2C60.2001 49.8 60.2001 97.9 60.2001 102.2C60.2001 110.2 54.2001 116.7 46.8001 116.7C39.2001 116.7 32.1001 109.3 37.5001 100.4C28.7001 104.4 25.9001 94.7 30.1001 90.6C22.6001 87.5 21.4001 76.2 29.5001 73.6Z" fill="#C149C4" stroke="#4D4D4D" stroke-width="3" stroke-miterlimit="10" stroke-linecap="round" stroke-linejoin="round"/>
<path d="M33.8999 57.8C35.7999 62.7001 40.9999 65.1001 45.5999 63.0001" stroke="#4D4D4D" stroke-width="3" stroke-miterlimit="10" stroke-linecap="round" stroke-linejoin="round"/>
<path d="M43.8999 56.8001C48.5999 55.3001 52.1999 58.0001 52.8999 61.5001C53.7999 65.6001 49.1999 70.3001 44.5999 70.0001" stroke="#4D4D4D" stroke-width="3" stroke-miterlimit="10" stroke-linecap="round" stroke-linejoin="round"/>
<path d="M38.3001 73.6001C39.1001 78.2001 35.0001 81.0001 31.1001 80.7001" stroke="#4D4D4D" stroke-width="3" stroke-miterlimit="10" stroke-linecap="round" stroke-linejoin="round"/>
<path d="M37 94.9C39.8 93.3 43.1 92.7999 45.1 95.4C47.3 98.3 45.7 101.6 42.1 104.1" stroke="#4D4D4D" stroke-width="3" stroke-miterlimit="10" stroke-linecap="round" stroke-linejoin="round"/>
<path d="M49.6002 89.3001C45.2002 84.3001 36.1002 83.9001 30.2002 90.5001" stroke="#4D4D4D" stroke-width="3" stroke-miterlimit="10" stroke-linecap="round" stroke-linejoin="round"/>
<path d="M63.2002 10.0001V2" stroke="#4D4D4D" stroke-width="3" stroke-miterlimit="10" stroke-linecap="round" stroke-linejoin="round"/>
<path d="M31.8999 18.4001L27.8999 11.5" stroke="#4D4D4D" stroke-width="3" stroke-miterlimit="10" stroke-linecap="round" stroke-linejoin="round"/>
<path d="M8.90002 41.4001L2 37.4001" stroke="#4D4D4D" stroke-width="3" stroke-miterlimit="10" stroke-linecap="round" stroke-linejoin="round"/>
<path d="M124.5 37.4001L117.5 41.4001" stroke="#4D4D4D" stroke-width="3" stroke-miterlimit="10" stroke-linecap="round" stroke-linejoin="round"/>
<path d="M98.6001 11.5L94.6001 18.4001" stroke="#4D4D4D" stroke-width="3" stroke-miterlimit="10" stroke-linecap="round" stroke-linejoin="round"/>
</svg>
